!!!COM: Palestrina, Giovanni Perluigi da
!!!OPR: Missa In festis Apostolorum (II)
!!!OMD: Credo
!!!OTL: Et incarnatus
**kern	**kern	**kern	**kern	**kern
*Ibass	*Itenor	*Itenor	*Icalto	*Icant
!Bassus	!Tenor 2	!Tenor 1	!Altus	!Cantus
*clefF4	*clefGv2	*clefGv2	*clefG2	*clefG2
*k[]	*k[]	*k[]	*k[]	*k[]
*D:dor	*D:dor	*D:dor	*D:dor	*D:dor
*M4/2	*M4/2	*M4/2	*M4/2	*M4/2
=68	=68	=68	=68	=68
0r	0D	0d	0f	0a
=69	=69	=69	=69	=69
0r	1A	1c#	1e	1a
.	1D	1d	1f	1a
=70	=70	=70	=70	=70
0r	1E	1c	1e	1a
.	1E	1B	1e	1g#
=71	=71	=71	=71	=71
0D	1F	1A	0d	[0a
.	1A	1F	.	.
=72	=72	=72	=72	=72
1C#	1.A	1E	0r	0a]
1D	.	1F	.	.
.	2A	.	.	.
=73	=73	=73	=73	=73
1C	1A	1E	1r	0r
1BB	1G#	2D	1d	.
.	.	[2d	.	.
=74	=74	=74	=74	=74
0AA	0A	4d]	1f	1a
.	.	4c	.	.
.	.	2.c	.	.
.	.	.	1e	1cc
.	.	8B	.	.
.	.	8A	.	.
.	.	2c	.	.
=75	=75	=75	=75	=75
0r	2r	1G	2d	1b
.	2G	.	2.g	.
.	1d	1r	.	1a
.	.	.	4f	.
.	.	.	4f	.
.	.	.	8e	.
.	.	.	8d	.
=76	=76	=76	=76	=76
1r	2A	1r	1e	1cc
.	2A	.	.	.
1GG	1B	2r	[1d	[1dd
.	.	2D	.	.
=77	=77	=77	=77	=77
1D	2A	1F	1d]	1dd]
.	2A	.	.	.
2AA	1c	1E	1r	1r
2C	.	.	.	.
=78	=78	=78	=78	=78
4GG	1B	1D	0r	0r
4AA	.	.	.	.
4BB	.	.	.	.
4C	.	.	.	.
4D	1A	1F	.	.
4E	.	.	.	.
4F	.	.	.	.
4D	.	.	.	.
=79	=79	=79	=79	=79
1E	1c	1G	1g	0r
1D	1d	[1A	1f	.
=80	=80	=80	=80	=80
1AA	0r	2A]	1e	1cc
.	.	2E	.	.
1r	.	1G	1d	1b
=81	=81	=81	=81	=81
0r	2r	2A	1c	1a
.	2A	2F	.	.
.	1c	2C	1e	1g
.	.	2C	.	.
=82	=82	=82	=82	=82
1r	1A	1D	1d	1f
1F	2A	1r	1c	1a
.	[2c	.	.	.
=83	=83	=83	=83	=83
1E	2c]	2r	1r	1g
.	1B	1G	.	.
1D	.	.	2r	1r
.	[2A	[2F	2A	.
=84	=84	=84	=84	=84
1C	2A]	2F]	1c	0r
.	2G	2E	.	.
1BB-	2B-	2F	2d	.
.	2B-	[2G	2d	.
=85	=85	=85	=85	=85
1D	2A	4G]	2d	0r
.	.	4F	.	.
.	4G	1F	2B	.
.	4F	.	.	.
1C	1G	.	1c	.
.	.	2E	.	.
=86	=86	=86	=86	=86
1r	0F	1F	2.c	0a
.	.	.	4B	.
[1F	.	2r	4A	.
.	.	.	4G	.
.	.	2A	2F	.
=87	=87	=87	=87	=87
2F]	1C	1c	0G	0g
4E	.	.	.	.
4D	.	.	.	.
1E	1C	2c	.	.
.	.	[2c	.	.
=88	=88	=88	=88	=88
0F	2.c	4c]	1F	0a
.	.	4B	.	.
.	.	4A	.	.
.	4B	4G	.	.
.	4A	4F	[1f	.
.	4G	4G	.	.
.	2F	4A	.	.
.	.	4B	.	.
=89	=89	=89	=89	=89
0C	1.G	0c	2f]	0g
.	.	.	4e	.
.	.	.	4d	.
.	.	.	1e	.
.	2E	.	.	.
=90	=90	=90	=90	=90
0D	2.F	1A	0d	0f
.	4G	.	.	.
.	[1A	2.F	.	.
.	.	4G	.	.
=91	=91	=91	=91	=91
0AA	2A]	2.A	2.c	[0e
.	4G	.	.	.
.	4F	4B	4B	.
.	2E	1c	2A	.
.	[2A	.	2E	.
=92	=92	=92	=92	=92
0E	2A]	2.B	2E	0e]
.	4G#	.	2.e	.
.	4F#	4A	.	.
.	1G#	1B	.	.
.	.	.	4d	.
.	.	.	2B	.
=93	=93	=93	=93	=93
[0AA	[0A	[0A	[0c#	[0e
=94	=94	=94	=94	=94
0AA]	0A]	0A]	0c#]	0e]
*-	*-	*-	*-	*-
!!!CDT: 1525/^1526/-1594/2/2
!!!OCY: Italia
!!!AGN: Mass (Paraphrase)
!!!AST: renaissance, vocal
!!!ASW: Gregorian Mass
!!!PWK: Masses, Book Mantuan II
!!!RNB: Cadence finals: A
!!!YOR: Le Opere Complete, v. 19, p. 1
!!!YOO: Rome, Italy: Fratelli Scalera
!!!END: 1992//
!!!EED: John Miller
!!!YEC: Copyright 2000, John Miller
!!!YEN: United States of America
!!!YEM: Rights to all derivative electronic formats reserved.
!!!YEM: Refer to licensing agreement for further details.
!!!YEM: This file must be accompanied by the licensing agreement.
!!!YEM: A copy of the licensing agreement may be found at http://www.music-cog.ohio-state.edu/HumdrumDatabases/Palestrina/license.txt
!!!EMD: converted to Humdrum by Bret Aarden
